svg/u1f36e.svg

<svg viewBox="0 0 128 128" xmlns="http://www.w3.org/2000/svg">
  <path d="M64.81,28.17C36.16,28.35,4.09,41,3.57,69.85c-0.2,10.79,4.35,20.91,15.49,29.81 c10.52,8.39,23.81,12.59,43.74,12.75c30.1,0.23,47.13-10.68,55.26-22.17c5.54-7.83,6.53-15.61,6.33-21.57 C123.6,45.72,94.82,27.97,64.81,28.17z" fill="#D4D4D4"/>
  <path d="M64.76,28.85C35.54,28.35,6.9,39.05,6.51,66.71c-0.13,8.83,2.6,15.78,7.26,21.38 c10.59,12.75,26.42,19.92,51,19.81c19.42-0.08,35.28-5.73,45.11-15.3c7.34-7.15,12.28-15.73,11.57-26.28 C119.87,42.78,99.08,29.44,64.76,28.85z" fill="#F6F6F6"/>
  <path d="M70.18,56l31.65-0.44c0,0,5.32,4.24,4.99,14.02c-0.3,8.79-7.48,27.15-44.29,26.5 c-37.03-0.66-41.8-27.88-41.8-27.88s5.37-10.67,10.76-10.67S70.18,56,70.18,56z" fill="#AF5711"/>
  <path d="M37.94,57.37l-13.7-2.14c0,0-4.71,4.95-4.95,12.75c-0.22,7.14,3.6,18.18,24.09,25.31 C53.49,96.8,66.21,96.25,68.09,96c2.53-0.33,2.75-4.18-1.54-4.07c-3.41,0.09-11.65,0.55-21.65-2.75 c-8.89-2.93-20.6-9.16-21.96-18.25C21.39,60.54,37.94,57.37,37.94,57.37z" fill="#CF701D"/>
  <path d="M39.08,27.42l-9.98,3.16c0,0-0.89,2.44-1.6,5.96c-0.39,1.95,2.13,16.82,2.13,16.82L75.67,86 l4.17,1.37c0,0,9.59-2.21,16.52-9.26c6.04-6.15,6.29-12.34,6.46-14.32c0.24-2.99-0.84-12.81-1.87-17.8 c-1.32-6.37-3.41-16.15-5.17-18.57s-31.32-5.06-31.32-5.06L39.08,27.42z" fill="#F5B03E"/>
  <path d="M65.78,56.55c0.33-0.77,5.63-3.41,5.63-3.41s2.61-0.23,4.04-0.45c1.43-0.22,3.65-0.81,3.65-0.81 l1.62,35.28c0,0-2.63,0.71-4.4,0.94c-1.33,0.17-4.19,0.47-5.29,0.47c-1.1,0-4.59-10.03-4.59-10.03L65.78,56.55z" fill="#F7C876"/>
  <path d="M23.25,67.54c0,3.28,1.98,8.9,13.41,15.39c15.04,8.53,35.51,5.59,35.51,5.59s-0.45-21.63-0.45-24.6 S71.53,53.1,71.53,53.1s-20.15,1.78-34.22-5.47c-12.39-6.39-9.29-13.4-9.29-13.4s-2.44,9.12-3.34,17.15 C23.86,58.75,23.25,63.8,23.25,67.54z" fill="#FBDF96"/>
  <path d="M63.14,15.78c-19.12-0.33-34.09,7.15-34.4,17.25c-0.33,10.99,17.04,16.53,36.05,17.03 C85.34,50.61,98.3,40,97.21,31.38C96,21.82,82.48,16.11,63.14,15.78z" fill="#E07F14"/>
  <path d="M84.66,23.31c-2.2,2.28,1.98,2.87,1.52,7.98c-0.56,6.19-8.12,8.63-7.9,10.9 c0.33,3.33,13.58-1.46,14.65-10.53C93.85,23.93,86.01,21.9,84.66,23.31z" fill="#FFFFFF"/>
  <path d="M75.98,42.58c0.89,1.58-4.24,3.99-14.24,3.93c-13.84-0.08-26.03-5.82-25.8-7.31s7.63,3.38,24.46,3.62 C72.37,42.98,75.28,41.32,75.98,42.58z" fill="#FFBA02"/>
</svg>

<svg viewBox="0 0 128 128" xmlns="http://www.w3.org/2000/svg">
  <defs/>
  <path d="M64.81,28.17 C36.16,28.35 4.09,41 3.57,69.85 C3.37,80.64 7.92,90.76 19.06,99.66 C29.58,108.05 42.87,112.25 62.8,112.41 C92.9,112.64 109.93,101.73 118.06,90.24 C123.6,82.41 124.59,74.63 124.39,68.67 C123.6,45.72 94.82,27.97 64.81,28.17 Z" fill="#D4D4D4"/>
  <path d="M64.76,28.85 C35.54,28.35 6.9,39.05 6.51,66.71 C6.38,75.54 9.11,82.49 13.77,88.09 C24.36,100.84 40.19,108.01 64.77,107.9 C84.19,107.82 100.05,102.17 109.88,92.6 C117.22,85.45 122.16,76.87 121.45,66.32 C119.87,42.78 99.08,29.44 64.76,28.85 Z" fill="#F6F6F6"/>
  <path d="M70.18,56 L101.83,55.56 C101.83,55.56 107.15,59.8 106.82,69.58 C106.52,78.37 99.34,96.73 62.53,96.08 C25.5,95.42 20.73,68.2 20.73,68.2 C20.73,68.2 26.1,57.53 31.49,57.53 C36.88,57.53 70.18,56 70.18,56 Z" fill="#AF5711"/>
  <path d="M37.94,57.37 L24.24,55.23 C24.24,55.23 19.53,60.18 19.29,67.98 C19.07,75.12 22.89,86.16 43.38,93.29 C53.49,96.8 66.21,96.25 68.09,96 C70.62,95.67 70.84,91.82 66.55,91.93 C63.14,92.02 54.9,92.48 44.9,89.18 C36.01,86.25 24.3,80.02 22.94,70.93 C21.39,60.54 37.94,57.37 37.94,57.37 Z" fill="#CF701D"/>
  <path d="M39.08,27.42 L29.1,30.58 C29.1,30.58 28.21,33.02 27.5,36.54 C27.11,38.49 29.63,53.36 29.63,53.36 L75.67,86 L79.84,87.37 C79.84,87.37 89.43,85.16 96.36,78.11 C102.4,71.96 102.65,65.77 102.82,63.79 C103.06,60.8 101.98,50.98 100.95,45.99 C99.63,39.62 97.54,29.84 95.78,27.42 C94.02,25 64.46,22.36 64.46,22.36 L39.08,27.42 Z" fill="#F5B03E"/>
  <path d="M65.78,56.55 C66.11,55.78 71.41,53.14 71.41,53.14 C71.41,53.14 74.02,52.91 75.45,52.69 C76.88,52.47 79.1,51.88 79.1,51.88 L80.72,87.16 C80.72,87.16 78.09,87.87 76.32,88.1 C74.99,88.27 72.13,88.57 71.03,88.57 C69.93,88.57 66.44,78.54 66.44,78.54 L65.78,56.55 Z" fill="#F7C876"/>
  <path d="M23.25,67.54 C23.25,70.82 25.23,76.44 36.66,82.93 C51.7,91.46 72.17,88.52 72.17,88.52 C72.17,88.52 71.72,66.89 71.72,63.92 C71.72,60.95 71.53,53.1 71.53,53.1 C71.53,53.1 51.38,54.88 37.31,47.63 C24.92,41.24 28.02,34.23 28.02,34.23 C28.02,34.23 25.58,43.35 24.68,51.38 C23.86,58.75 23.25,63.8 23.25,67.54 Z" fill="#FBDF96"/>
  <path d="M63.14,15.78 C44.02,15.45 29.05,22.93 28.74,33.03 C28.41,44.02 45.78,49.56 64.79,50.06 C85.34,50.61 98.3,40 97.21,31.38 C96,21.82 82.48,16.11 63.14,15.78 Z" fill="#E07F14"/>
  <path d="M84.66,23.31 C82.46,25.59 86.64,26.18 86.18,31.29 C85.62,37.48 78.06,39.92 78.28,42.19 C78.61,45.52 91.86,40.73 92.93,31.66 C93.85,23.93 86.01,21.9 84.66,23.31 Z" fill="#FFFFFF"/>
  <path d="M75.98,42.58 C76.87,44.16 71.74,46.57 61.74,46.51 C47.9,46.43 35.71,40.69 35.94,39.2 C36.17,37.71 43.57,42.58 60.4,42.82 C72.37,42.98 75.28,41.32 75.98,42.58 Z" fill="#FFBA02"/>
</svg>
